!!!!SEGMENT: pl-sa--159-a-iv-9--005_luna-georgius--vesperae-ex-d-lauda-jerusalem.krn
!!!cenid: 17xx:463
!!!COM: Luna, Georgius
!!!COM-rismid: pe41010079
!!!CDT:
!!!CNT:
!!!OPR: Vesperae ex D
!!!OTL: Lauda Jerusalem
!!!OMV: 005
!!!PDT:
!!!AGN: Sacred; Vespers
!!!SMS-siglum: PL-SA
!!!SMS-shelfmark: 159/A IV 9
!!!SMS-shelfwork: 001-005 M
!!!SMS-variant:
!!!SMS-altvar:
!!!NIFC-rismid: 1001070706
!!!URL-scan: http://bc.bdsandomierz.pl/dlibra/publication/1545/edition/1513/content
!!!ONB-nifc: UWAGA: części Vesperae: Dixit Dominus, Laudate pueri, Laetatus sum, Nisi Dominus, Lauda Jerusalem, Magnificat. UWAGA: brak partii clarino 1, clarino 2
!!!key:
**kern	**dynam	**kern	**kern	**dynam	**kern	**text	**kern	**text
*part5	*part5	*part4	*part3	*part3	*part2	*part2	*part1	*part1
*	*	*group2	*group2	*	*group1	*	*group1	*
*staff5	*	*staff4	*staff3	*	*staff2	*staff2	*staff1	*staff1
*Iempty	*	*Ivioln	*Ivioln	*	*Itenor	*	*Ivox	*
*I"Fondameto	*	*I"Violino Secundo	*I"Violino Primo	*	*I"Tenore	*	*I"Canto	*
*I'bc	*	*I'vl II	*I'vl I	*	*I'T	*	*I'C	*
*clefF4	*	*clefG2	*clefG2	*	*clefC4	*	*clefC1	*
*k[f#c#]	*	*k[f#c#]	*k[f#c#]	*	*k[f#c#]	*	*k[f#c#]	*
*D:	*	*D:	*D:	*	*D:	*	*D:	*
*M3/4	*	*M3/4	*M3/4	*	*M3/4	*	*M3/4	*
=1	=1	=1	=1	=1	=1	=1	=1	=1
!LO:TX:a:t=allo	!	!LO:TX:a:t=allo	!LO:TX:a:t=allo	!	!LO:TX:a:t=allo Solo	!	!LO:TX:a:t=allo Solo	!
!	!	!LO:N:vis=0	!LO:N:vis=0	!	!LO:TX:a:t=P:problem:przy kluczu jeden krzyżyk nad drugim	!	!LO:TX:a:t=P:problem:przy kluczu jeden krzyżyk nad drugim, cis oktawę wyżej	!
4r	.	1.r	1.r	.	4r	.	4r	.
4d\	.	.	.	.	4F#/	Lau-	4dd\	Lau-
4A\	.	.	.	.	4G/	-da	4ee\	-da
=2	=2	=2	=2	=2	=2	=2	=2	=2
4D\	.	.	.	.	4A/	lau-	4ff#\	lau-
4F#\	.	.	.	.	4F#/	-da	4dd\	-da
4D\	.	.	.	.	4A/	Je-	4ff#\	Je-
=3	=3	=3	=3	=3	=3	=3	=3	=3
4G\	.	2.r	2.r	.	4G/	-ru-	4ee\	-ru-
4A\	.	.	.	.	4F#/	-ſa-	4dd\	-ſa-
4AA/	.	.	.	.	4E/	-lem	4cc#\	-lem
=4	=4	=4	=4	=4	=4	=4	=4	=4
4D\	.	4r	4r	.	8.F#/	Do-	8.dd\	Do-
.	.	.	.	.	16F#/	-mi-	16dd\	-mi-
!	!LO:DY:a	!	!	!	!	!	!	!
4D\	f	4r	4r	.	4F#/	-num	4dd\	-num
!	!	!	!	!	!LO:TX:a:t=Tutt.	!	!	!
4D\	.	4ff#\	4ddd\	.	8A\	lau-	8ff#\	lau-
.	.	.	.	.	8A\	-da	8ff#\	-da
=5	=5	=5	=5	=5	=5	=5	=5	=5
*	*	*Xtuplet	*Xtuplet	*	*	*	*	*
4A\	.	12ee\L	12ccc#\L	.	4c#\	de-	4ee\	De-
.	.	12dd\	12bb\	.	.	.	.	.
.	.	12cc#\J	12aa\J	.	.	.	.	.
4AA/	.	4cc#\	4a/	.	4c#\	-um	4ee\	-um
4D\	.	4ff#\	4ddd\	.	8A\	tu-	8ff#\	tu-
.	.	.	.	.	8A\	-um	8ff#\	-um
=6	=6	=6	=6	=6	=6	=6	=6	=6
4A\	.	12ee\L	12ccc#\L	.	4c#\	Si-	4ee\	Si-
.	.	12dd\	12bb\	.	.	.	.	.
.	.	12cc#\J	12aa\J	.	.	.	.	.
4AA/	.	4a/	4a/	.	4c#\	on	4ee\	-on
4r	.	4A/	4A/	.	4r	.	4r	.
=7	=7	=7	=7	=7	=7	=7	=7	=7
4D\	.	4f#/	4dd\	.	4F#/	quo-	4dd\	Quo-
4F#\	.	4a/	8dd\L	.	8A/	-ni-	8dd\	-ni-
.	.	.	8ee\	.	8A/	-am	8dd\	-am
4E\	.	4g/	8ff#\	.	8G/	con-	8dd\	con-
.	.	.	8gg\J	.	8G/	-for-	8dd\	-for-
=8	=8	=8	=8	=8	=8	=8	=8	=8
4D\	.	4f#/	16aa\LL	.	4F#/	-ta-	4dd\	-ta-
.	.	.	16gg\	.	.	.	.	.
.	.	.	16ff#\	.	.	.	.	.
.	.	.	16ee\JJ	.	.	.	.	.
.	.	.	8qqee/	.	.	.	.	.
*	*	*	*2\right	*	*	*	*	*
4F#\	.	4a/	2dd\	.	8A/	-vit	8dd\	-vit
.	.	.	.	.	8A/	ſe-	8dd\	ſe-
4E\	.	4g/	.	.	8G/	-raſ	8dd\	-raſ
.	.	.	.	.	8G/	por-	8dd\	por-
!	!	!	!	!	!	!	!LO:LB:g=original	!
=9	=9	=9	=9	=9	=9	=9	=9	=9
4D\	.	4f#/	16aa\LL	.	4F#/	-ta-	4dd\	-ta-
.	.	.	16gg\	.	.	.	.	.
.	.	.	16ff#\	.	.	.	.	.
.	.	.	16ee\JJ	.	.	.	.	.
4F#\	.	8.a\L	8.dd\L	.	4A/	-rum	4dd\	-rum
!	!	!LO:SIC:s=16ccn:v	!	!	!	!	!	!
.	.	16cc#\K	16aa\K	.	.	.	.	.
4D\	.	8.a\	8.ccn\	.	4A/	tu-	4ccn\	tu-
!	!	!LO:SIC:s=16ccn:v	!	!	!	!	!	!
.	.	16cc#\Jk	16aa\Jk	.	.	.	.	.
=10	=10	=10	=10	=10	=10	=10	=10	=10
!	!	!	!LO:SIC:s=4ccn:v	!	!	!	!LO:SIC:s=4ccn:v	!
4G\	.	(4a/	(4cc#\	.	4A/	-a-	4cc#\	-a-
4GG/	.	8.g/L)	8.b\L)	.	4G/	-rum	4b\	-rum
.	.	16g/Jk	16g\Jk	.	.	.	.	.
4r	.	4gg\	4gg\	.	4r	.	4r	.
!	!	!	!	!	!LO:LB:g=original	!	!	!
=11	=11	=11	=11	=11	=11	=11	=11	=11
4E\	.	4g#X/	4ee\	.	8G#X/	be-	8ee\	be-
.	.	.	.	.	8G#/	-ne-	8ee\	-ne-
4G#X\	.	4b/	8ee\L	.	4B\	-di-	4ee\	-di-
.	.	.	8ff#\	.	.	.	.	.
4F#\	.	4a/	8gg#X\	.	4A\	-xit	4ee\	-xit
.	.	.	8aa\J	.	.	.	.	.
=12	=12	=12	=12	=12	=12	=12	=12	=12
!	!	!LO:SIC:s=4g#:v	!	!	!	!	!	!
4E\	.	4g/	16bb\LL	.	4G#X/	fi-	4ee\	fi-
.	.	.	16aa\	.	.	.	.	.
.	.	.	16gg#X\	.	.	.	.	.
.	.	.	16ff#\JJ	.	.	.	.	.
4G#X\	.	4b/	2ee\	.	4B\	-li-	4ee\	-li-
4F#\	.	4a/	.	.	4A\	-is	4ee\	-is
=13	=13	=13	=13	=13	=13	=13	=13	=13
4E\	.	4g#X/	16bb\LL	.	4G#X\	tu-	4ee\	tu-
.	.	.	16aa\	.	.	.	.	.
.	.	.	16gg#X\	.	.	.	.	.
.	.	.	16ff#\JJ	.	.	.	.	.
4G#X\	.	8.b\L	8.ee\L	.	4B\	-is	4ee\	-is
.	.	16dd\K	16bb\K	.	.	.	.	.
4E\	.	8.b\	8.dd\	.	4B\	in	4dd\	in
.	.	16dd\Jk	16bb\Jk	.	.	.	.	.
!	!	!	!LO:LB:g=original	!	!	!	!	!
=14	=14	=14	=14	=14	=14	=14	=14	=14
!	!	!	!	!	!	!	!LO:SIC:l:s=te:v	!
4A\	.	(4b\	(4dd\	.	(4B\	te	(4dd\	ter-
4AA/	.	8.a\L)	8.cc#\L)	.	4A\)	.	4cc#\)	.
.	.	16a\Jk	16a\Jk	.	.	.	.	.
4r	.	4aa\	4aa\	.	4r	.	4r	.
=15	=15	=15	=15	=15	=15	=15	=15	=15
!	!	!	!LO:TUP:a:problem:klamra łukowa bez numeru	!	!	!	!	!
4AA/	.	4ee\	12gg\L	.	4c#\	qui	4ee\	qui
.	.	.	12ff#\	.	.	.	.	.
.	.	.	12ee\J	.	.	.	.	.
4C#/	.	4a\	4ee\	.	4A\	po-	4ee\	po-
4D/	.	4ff#\	8.ff#\L	.	8B\	-ſu-	8ff#\	-ſu-
.	.	.	.	.	8B\	-it	8dd\	-it
.	.	.	16dd\Jk	.	.	.	.	.
!	!	!LO:LB:g=original	!	!	!	!	!	!
=16	=16	=16	=16	=16	=16	=16	=16	=16
.	.	.	8qqdd/	.	.	.	.	.
*	*	*	*	*	*2\right	*	*2\right	*
4A\	.	12gg\L	2cc#\	.	2e\	fi-	2cc#\	fi-
.	.	12ff#\	.	.	.	.	.	.
.	.	12ee\J	.	.	.	.	.	.
4AA/	.	4ee\	.	.	.	.	.	.
4D\	.	8.ff#\L	4dd\	.	8f#\L	-neſ	4dd\	-nes
.	.	.	.	.	8d\J	.	.	.
.	.	16dd\Jk	.	.	.	.	.	.
=17	=17	=17	=17	=17	=17	=17	=17	=17
!	!	!	!LO:TUP:a:problem:klamra łukowa bez numeru	!	!	!	!LO:SIC: l:s=tu-:v	!
4AA/	.	4cc#\	12gg\L	.	(4c#\	tu-	4ee\	lu-
.	.	.	12ff#\	.	.	.	.	.
.	.	.	12ee\J	.	.	.	.	.
!	!	!	!	!	!	!	!LO:SIC:l:s=-os:v	!
4C#/	.	4a\	4ee\	.	4A\)	.	(4ee\	-or
4D/	.	4ff#\	8.ff#\L	.	4d\	-os	4ff#\)	.
.	.	.	16dd\Jk	.	.	.	.	.
!LO:LB:g=original	!	!	!	!	!	!	!	!
=18	=18	=18	=18	=18	=18	=18	=18	=18
.	.	.	8qqdd/	.	.	.	8qqdd/	.
4A\	.	12gg\L	2cc#\	.	2e\	pa-	2cc#\	pa-
.	.	12ff#\	.	.	.	.	.	.
.	.	12ee\J	.	.	.	.	.	.
4AA/	.	4ee\	.	.	.	.	.	.
4D\	.	8.ff#\L	4dd\	.	8f#\L	-cem	4dd\	-cem
.	.	.	.	.	8d\J	.	.	.
.	.	16dd\Jk	.	.	.	.	.	.
=19	=19	=19	=19	=19	=19	=19	=19	=19
4AA/	.	4ee\	4gg\	.	4c#\	et	4ee\	et
4AA/	.	8ee\L	8gg\L	.	8c#\	a-	8ee\	a-
.	.	8cc#\	8ee\	.	8c#\	-di-	8ee\	-di-
!	!	!	!	!	!	!	!LO:LB:g=original	!
4AA/	.	8a\	8cc#\	.	8c#\	-pe	8ee\	-pe
.	.	8f#\J	8a\J	.	8c#\	fru-	8ee\	fru-
=20	=20	=20	=20	=20	=20	=20	=20	=20
.	.	8qqf#/	8qqa/	.	.	.	.	.
4AA/	.	4e/	4g/	.	4Gn\	-men-	4ee\	-men-
*	*	*2\right	*	*	*	*	*	*
4C#/	.	2ee\	2gg\	.	2G\	-ti	2ee\	-ti
4AA/	.	.	.	.	.	.	.	.
=21	=21	=21	=21	=21	=21	=21	=21	=21
4D\	.	4dd\	12ff#\L	.	(4d\	ſa-	(4ff#\	ſa-
.	.	.	12ee\	.	.	.	.	.
.	.	.	12dd\J	.	.	.	.	.
!	!	!LO:TX:a:t=P:problem:niejednoznaczny zapis ozdobnika [przyjęto tryl]:global	!LO:TX:a:t=P:problem:niejednoznaczny zapis ozdobnika [przyjęto tryl]:global	!	!	!	!	!
4A\	.	2cc#t\	2eeT\	.	4c#\)	.	4ee\)	.
4AA/	.	.	.	.	8c#\	-ti-	8ee\	-ti-
.	.	.	.	.	8c#\	-at	8ee\	-at
!	!	!	!	!	!LO:LB:g=original	!	!	!
=22	=22	=22	=22	=22	=22	=22	=22	=22
!	!LO:DY:a	!	!	!	!	!	!LO:SIC:l:s=te:v	!
4D\	p	4dd\	4dd\	.	4d\	te	4dd\	le
!	!	!	!	!	!	!	!LO:TX:a:t=Solo	!
4D\	.	4r	4r	.	4r	.	4dd\	qui
4F#\	.	4r	4r	.	4r	.	4a\	e-
=23	=23	=23	=23	=23	=23	=23	=23	=23
!	!	!LO:N:vis=00	!LO:N:vis=00	!	!LO:N:vis=00	!	!	!
4G\	.	0.r	0.r	.	0.r	.	4b\	-mit-
!	!	!	!	!	!	!	!LO:SIC:l:s=-tit:v	!
4F#\	.	.	.	.	.	.	4a\	-tet
4F#\	.	.	.	.	.	.	4dd\	e-
=24	=24	=24	=24	=24	=24	=24	=24	=24
4E\	.	.	.	.	.	.	4ee\	-lo-
4C#/	.	.	.	.	.	.	8ee\	-qui-
.	.	.	.	.	.	.	8ff#\	-um
4AA/	.	.	.	.	.	.	8gg\	ſu-
.	.	.	.	.	.	.	8ee\	-um
=25	=25	=25	=25	=25	=25	=25	=25	=25
4D\	.	.	.	.	.	.	4ff#\	ter-
!	!	!	!	!	!	!	!LO:SIC:l:s=-ae:v	!
.	.	.	.	.	.	.	8qqee/	.
4F#\	.	.	.	.	.	.	4dd\	-re
4A\	.	.	.	.	.	.	4r	.
=26	=26	=26	=26	=26	=26	=26	=26	=26
4D\	.	.	.	.	.	.	4ff#\	Ve-
.	.	.	.	.	.	.	8qqee/	.
4F#\	.	.	.	.	.	.	4dd\	-lo-
4D\	.	.	.	.	.	.	8b\	-ci-
.	.	.	.	.	.	.	8a\	-ter
=27	=27	=27	=27	=27	=27	=27	=27	=27
!	!	!LO:N:vis=0	!LO:N:vis=0	!	!LO:N:vis=0	!	!	!
4E\	.	1.r	1.r	.	1.r	.	8g#X\	cur-
.	.	.	.	.	.	.	8b\	-rit
8B\L	.	.	.	.	.	.	4.dd\	ſer-
8A\	.	.	.	.	.	.	.	.
8G#X\	.	.	.	.	.	.	.	.
8E\J	.	.	.	.	.	.	(16cc#\LL	-mo
.	.	.	.	.	.	.	16b\JJ)	.
=28	=28	=28	=28	=28	=28	=28	=28	=28
*	*	*	*	*	*	*	*Xtuplet	*
!	!	!	!	!	!	!	!LO:TUP:a:problem:klamra łukowa bez numeru	!
4AA/	.	.	.	.	.	.	12cc#\L	e-
.	.	.	.	.	.	.	12b\	.
.	.	.	.	.	.	.	12a\J	.
!	!	!	!	!	!	!	!LO:TX:a:t=P:problem:niejednoznaczny zapis ozdobnika [przyjęto tryl]:global	!
4E\	.	.	.	.	.	.	2bT\	.
4EE/	.	.	.	.	.	.	.	.
!	!	!	!	!	!	!	!LO:LB:g=original	!
=29	=29	=29	=29	=29	=29	=29	=29	=29
4AA/	.	4r	4r	.	4r	.	4a\	-juſ
!	!LO:DY:a	!	!	!	!	!	!	!
4AA/	f	4cc#\	4aa\	.	4A\	Qui	4cc#\	qui
4C#/	.	4cc#\	4aa\	.	4A\	dat	4cc#\	dat
=30	=30	=30	=30	=30	=30	=30	=30	=30
4E\	.	12b/L	12gg#X\L	.	4G#X/	ni-	4b\	ni-
.	.	12a/	12ff#\	.	.	.	.	.
.	.	12g#X/J	12ee\J	.	.	.	.	.
4G#X\	.	4g#/	4e/	.	4G#/	-vem	4b\	-vem
4A\	.	4cc#\	4aa\	.	8A\	ſi-	8cc#\	ſi-
.	.	.	.	.	8A\	cut	8cc#\	-cut
=31	=31	=31	=31	=31	=31	=31	=31	=31
4e\	.	12b/L	12gg#X\L	.	4G#X/	la-	4b\	la-
!	!	!LO:SIC:s=8an:v	!	!	!	!	!	!
.	.	12a#X/	12ff#\	.	.	.	.	.
.	.	12g#X/J	12ee\J	.	.	.	.	.
4E\	.	4e/	4e/	.	4G#/	-nam	4b\	-nam
4r	.	4r	4r	.	4r	.	4r	.
!	!	!	!LO:PB:g=original	!	!	!	!	!
=32	=32	=32	=32	=32	=32	=32	=32	=32
4E\	.	8.dd\L	8.bb\L	.	8B\	ne-	8dd\	ne-
.	.	.	.	.	8B\	-bu-	8dd\	-bu-
.	.	16b\Jk	16dd\Jk	.	.	.	.	.
4G#X\	.	4.b\	4.dd\	.	4B\	-lam	4dd\	-lam
4E\	.	.	.	.	8A\	ſi-	8cc#\	ſi-
.	.	16a\LL	(16cc#\LL	.	8G#X\	cut	8b\	-cut
.	.	16g#X\JJ	16b\JJ)	.	.	.	.	.
=33	=33	=33	=33	=33	=33	=33	=33	=33
4A\	.	8.a\L	8.cc#\L	.	8A\	Ci-	8cc#\	Ci-
.	.	.	.	.	8B\	-ne-	8dd\	-ne-
.	.	16b\Jk	16dd\Jk	.	.	.	.	.
4C#/	.	2cc#\	2ee\	.	2c#\	-rem	2ee\	-rem
4AA/	.	.	.	.	.	.	.	.
!	!	!LO:LB:g=original	!	!	!	!	!	!
=34	=34	=34	=34	=34	=34	=34	=34	=34
4E\	.	8.dd\L	8.bb\L	.	8B\	ne-	8dd\	ne-
.	.	.	.	.	8B\	-bu-	8dd\	-bu-
.	.	16b\Jk	16dd\Jk	.	.	.	.	.
4G#X\	.	4.b\	4.dd\	.	4B\	-lam	4dd\	-lam
4E\	.	.	.	.	8A\	ſi-	8cc#\	ſi-
!	!	!	!	!	!LO:SIC:s=8G#:v	!	!	!
.	.	(16a\LL	(16cc#\LL	.	8G\	cut	8b\	cut
.	.	16g#X\JJ)	16b\JJ)	.	.	.	.	.
=35	=35	=35	=35	=35	=35	=35	=35	=35
4A\	.	8.a\L	8.cc#\L	.	8A\	Ci-	8cc#\	Ci-
.	.	.	.	.	8B\	-ne-	8dd\	-ne-
.	.	16b\Jk	16dd\Jk	.	.	.	.	.
4C#/	.	2cc#\	2ee\	.	2c#\	-rem	2ee\	-rem
4AA/	.	.	.	.	.	.	.	.
!LO:LB:g=original	!	!	!	!	!	!	!	!
=36	=36	=36	=36	=36	=36	=36	=36	=36
!LO:TX:a:t=P:problem:nieczytelny zapis	!	!	!	!	!	!	!	!
4r	.	4a/	8ff#\L	.	2A\	ſpar-	(4ff#\	ſpar-
.	.	.	8aa\	.	.	.	.	.
4C#/	.	4a/	8ee\	.	.	.	4ee\	.
.	.	.	8aa\	.	.	.	.	.
4BB/	.	4g#X/	8dd\	.	4G#X/	.	4dd\)	.
.	.	.	8bb\J	.	.	.	.	.
=37	=37	=37	=37	=37	=37	=37	=37	=37
!	!	!	!	!	!	!	!LO:TUP:a:problem:klamra łukowa bez numeru	!
4AA/	.	4a/	12cc#\L	.	4A\	.	12cc#\L	.
.	.	.	12b\	.	.	.	12b\	.
.	.	.	12a\J	.	.	.	12a\J	.
4E\	.	2g#Xt/	2bT\	.	2G#X\	.	2b\	.
4EE/	.	.	.	.	.	.	.	.
!	!	!	!	!	!LO:LB:g=original	!	!	!
=38	=38	=38	=38	=38	=38	=38	=38	=38
4AA/	.	8.a\L	8.a\L	.	4A\	-git	4a\	-git
.	.	16cc#\Jk	16aa\Jk	.	.	.	.	.
.	.	8qqcc#/	8qqaa/	.	.	.	.	.
4E\	.	4.b\	4.gg#X\	.	4r	.	4r	.
4E\	.	.	.	.	4r	.	4r	.
.	.	8b\	8dd\	.	.	.	.	.
!	!	!	!	!	!	!	!LO:LB:g=original	!
=39	=39	=39	=39	=39	=39	=39	=39	=39
!	!	!	!	!	!LO:N:vis=0	!	!LO:N:vis=00	!
4AA/	.	8.a/L	8.cc#\L	.	1.r	.	0.r	.
.	.	16c#/Jk	16a\Jk	.	.	.	.	.
!	!	!	!LO:TX:a:t=P:problem:kropka pod nutą	!	!	!	!	!
.	.	8qqc#/	8qqa/	.	.	.	.	.
4E\	.	4.B/	4.g#X/	.	.	.	.	.
4E\	.	.	.	.	.	.	.	.
.	.	8B/	8d/	.	.	.	.	.
=40	=40	=40	=40	=40	=40	=40	=40	=40
!	!	!	!LO:TX:a:t=P:problem:kropka pod nutą	!	!	!	!	!
4C#\	.	8.A/L	8.c#/L	.	.	.	.	.
.	.	16e/Jk	16a/Jk	.	.	.	.	.
4D\	.	4f#/	2bT\	.	.	.	.	.
4E\	.	4g#X/	.	.	.	.	.	.
=41	=41	=41	=41	=41	=41	=41	=41	=41
!	!	!	!	!	!LO:TX:a:t=Solo	!	!	!
4AA/	.	4a/	4a/	.	4A\	mit-	.	.
4C#/	.	4r	4r	.	8e\L	-tit	.	.
.	.	.	.	.	8c#\J	.	.	.
!	!	!	!	!	!LO:SIC: l:s=Cry-:v	!	!	!
4C#/	.	4r	4r	.	8B\L	Cri-	.	.
.	.	.	.	.	8A\J	.	.	.
=42	=42	=42	=42	=42	=42	=42	=42	=42
!	!	!LO:N:vis=00	!LO:N:vis=00	!	!	!	!	!
4D/	.	0.r	0.r	.	8B\L	-ſtal-	.	.
.	.	.	.	.	8G#X\J	.	.	.
.	.	.	.	.	8qqG#/	.	.	.
8C#/L	.	.	.	.	2A\	-lum	.	.
8BB/J	.	.	.	.	.	.	.	.
4C#/	.	.	.	.	.	.	.	.
=43	=43	=43	=43	=43	=43	=43	=43	=43
!	!	!	!	!	!	!	!LO:N:vis=00	!
4D/	.	.	.	.	4f#\	ſu-	0.r	.
!	!	!	!	!	!LO:SIC:l:s=-um:v	!	!	!
4C#/	.	.	.	.	2e\	-am	.	.
4AA/	.	.	.	.	.	.	.	.
=44	=44	=44	=44	=44	=44	=44	=44	=44
4D/	.	.	.	.	4f#\	ſi-	.	.
4C#/	.	.	.	.	2e\	-cut	.	.
4AA/	.	.	.	.	.	.	.	.
=45	=45	=45	=45	=45	=45	=45	=45	=45
!	!	!	!	!	!LO:SIC:l:s=buc-:v	!	!	!
4C#/	.	.	.	.	4a\	bu-	.	.
.	.	.	.	.	8qqe/	.	.	.
4BB/	.	.	.	.	2d\	-cel-	.	.
4E\	.	.	.	.	.	.	.	.
=46	=46	=46	=46	=46	=46	=46	=46	=46
!	!	!LO:N:vis=00	!LO:N:vis=00	!	!	!	!	!
4AA/	.	0.r	0.r	.	4c#\	-laſ	.	.
4A\	.	.	.	.	4c#\	an-	.	.
4A\	.	.	.	.	4c#\	-te	.	.
=47	=47	=47	=47	=47	=47	=47	=47	=47
!	!	!	!	!	!	!	!LO:N:vis=00	!
4G#X\	.	.	.	.	4B\	fa-	0.r	.
4F#\	.	.	.	.	8c#\L	-ci-	.	.
.	.	.	.	.	8d#X\J	.	.	.
4E\	.	.	.	.	4e\	-em	.	.
=48	=48	=48	=48	=48	=48	=48	=48	=48
4D#X\	.	.	.	.	8f#\L	fri-	.	.
.	.	.	.	.	8e\	.	.	.
4F#\	.	.	.	.	8d#X\	.	.	.
.	.	.	.	.	8c#\J	.	.	.
4BB/	.	.	.	.	8B\	-go-	.	.
.	.	.	.	.	8A\	-riſ	.	.
=49	=49	=49	=49	=49	=49	=49	=49	=49
4E\	.	.	.	.	4A\	e-	.	.
4E\	.	.	.	.	4G#X\	-juſ	.	.
8G#X\L	.	.	.	.	4r	.	.	.
8F#\J	.	.	.	.	.	.	.	.
=50	=50	=50	=50	=50	=50	=50	=50	=50
!	!	!LO:N:vis=00	!LO:N:vis=00	!	!	!	!	!
4E\	.	0.r	0.r	.	2.B\	quiſ	.	.
4G#X\	.	.	.	.	.	.	.	.
4E\	.	.	.	.	.	.	.	.
=51	=51	=51	=51	=51	=51	=51	=51	=51
!	!	!	!	!	!	!	!LO:N:vis=0	!
4E\	.	.	.	.	2.c#\	quiſ	1.r	.
4A\	.	.	.	.	.	.	.	.
4E\	.	.	.	.	.	.	.	.
=52	=52	=52	=52	=52	=52	=52	=52	=52
4E\	.	.	.	.	2.d\	quiſ	.	.
4B\	.	.	.	.	.	.	.	.
4E\	.	.	.	.	.	.	.	.
!	!	!	!	!	!LO:LB:g=original	!	!	!
=53	=53	=53	=53	=53	=53	=53	=53	=53
!	!	!	!	!	!LO:N:vis=8	!	!	!
4A\	.	.	.	.	(16c#\LL	ſuſ-	2.r	.
!	!	!	!	!	!LO:N:vis=8	!	!	!
.	.	.	.	.	16B\JJ)	.	.	.
!	!	!	!	!	!LO:SIC:l:s=-ti-:v	!	!	!
.	.	.	.	.	8A\	-li-	.	.
!	!	!	!	!	!LO:TX:a:t=P:problem:niejednoznaczny zapis ozdobnika [przyjęto tryl]:global	!	!	!
4E\	.	.	.	.	2BT\	-ne-	.	.
4EE/	.	.	.	.	.	.	.	.
=54	=54	=54	=54	=54	=54	=54	=54	=54
4AA/	.	4r	4r	.	8A\	-bit	8r	.
.	.	.	.	.	8A\	e-	8cc#\	E-
4AA/	f	4cc#\	4ee\	.	4A\	-mit-	4cc#\	-mit-
4C#/	.	4cc#\	4aa\	.	4A\	-tet	4cc#\	-tet
!LO:PB:g=original	!	!	!	!	!	!	!	!
=55	=55	=55	=55	=55	=55	=55	=55	=55
4E\	.	12b/L	12gg#X\L	.	4G#X/	Ver-	4b\	Ver-
.	.	12a/	12ff#\	.	.	.	.	.
.	.	12g#X/J	12ee\J	.	.	.	.	.
4G#X\	.	4g#/	4e/	.	4G#/	-bum	4b\	-bum
4A\	.	4cc#\	4aa\	.	8A/	ſu-	8cc#\	ſu-
.	.	.	.	.	8A/	-um	8cc#\	-um
!	!	!	!LO:LB:g=original	!	!	!	!	!
=56	=56	=56	=56	=56	=56	=56	=56	=56
4E\	.	12b\L	12gg#X\L	.	4G#X/	Ja-	4b\	Ja-
.	.	12a\	12ff#\	.	.	.	.	.
.	.	12g#X\J	12ee\J	.	.	.	.	.
4E\	.	4e/	4e/	.	4G#/	-cob	4b\	-cob
4r	.	4r	4r	.	4r	.	4r	.
!	!	!LO:LB:g=original	!	!	!	!	!	!
=57	=57	=57	=57	=57	=57	=57	=57	=57
4E\	.	8dd\L	12bb\L	.	8B\L	et	(8dd\L	et
.	.	.	12gg#X\	.	.	.	.	.
.	.	8a\J	.	.	8A\J	.	8cc#\J)	.
.	.	.	12cc#\J	.	.	.	.	.
4G#X\	.	2b\	2dd\	.	8B\	li-	8dd\	li-
.	.	.	.	.	8B\	-quae-	8dd\	-quae-
4E\	.	.	.	.	4B\	-fa-	4dd\	-fa-
=58	=58	=58	=58	=58	=58	=58	=58	=58
4A\	.	4a/	12cc#\L	.	8A\	-ci-	8cc#\	-ci-
.	.	.	12b\	.	.	.	.	.
.	.	.	.	.	8A\	-et	8cc#\	-et
.	.	.	12a\J	.	.	.	.	.
4E\	.	2g#Xt/	2bT\	.	2G#X\	e-	2b\	e-
4EE/	.	.	.	.	.	.	.	.
=59	=59	=59	=59	=59	=59	=59	=59	=59
4AA/	.	4a\	4a\	.	4A\	-a	4cc#\	-a
4A\	.	8.cc#\L	8.ee\L	.	4c#\	fla-	4ee\	fla-
.	.	16cc#\K	16ee\K	.	.	.	.	.
4A\	.	8.cc#\	8.ee\	.	4c#\	-bit	4ee\	-bit
.	.	16cc#\Jk	16ee\Jk	.	.	.	.	.
=60	=60	=60	=60	=60	=60	=60	=60	=60
4Gn\	.	8.cc#\L	8.ee\L	.	4c#\	ſpi-	4ee\	ſpi-
.	.	16cc#\K	16ee\K	.	.	.	.	.
4G\	.	8.cc#\	8.ee\	.	4c#\	ri	4ee\	-ri-
.	.	16cc#\K	16ee\K	.	.	.	.	.
4G\	.	8.cc#\	8.ee\	.	4c#\	-tuſ	4ee\	-tuſ
.	.	16cc#\Jk	16ee\Jk	.	.	.	.	.
=61	=61	=61	=61	=61	=61	=61	=61	=61
4F#\	.	8.cc#\L	8.ee\L	.	4c#\	ſpi-	4ee\	ſpi-
.	.	16cc#\K	16ee\K	.	.	.	.	.
4A#X\	.	8.cc#\	8.ee\	.	4c#\	-ri-	4ee\	-ri-
.	.	16cc#\K	16ee\K	.	.	.	.	.
4B\	.	8.f#\	8.dd\	.	4F#/	-tuſ	4dd\	-tuſ
.	.	16f#\Jk	16dd\Jk	.	.	.	.	.
=62	=62	=62	=62	=62	=62	=62	=62	=62
4F#\	.	4a#X/	4cc#\	.	4A#X\	e-	4cc#\	e-
4F#\	.	4a#/	4cc#\	.	4A#\	-juſ	4cc#\	-juſ
4E\	.	4cc#\	4aa#X\	.	4A#\	et	4cc#\	et
!	!	!	!	!	!LO:LB:g=original	!	!	!
=63	=63	=63	=63	=63	=63	=63	=63	=63
8D\L	.	8dd\L	8bb\L	.	8B\	flu-	8dd\	flu-
8E\J	.	8b\J	8b\J	.	8B\	-ent	8dd\	-ent
4F#\	.	2a#Xt\	2cc#t\	.	2A#X\	a-	2cc#\	a-
4F#\	.	.	.	.	.	.	.	.
!	!	!	!	!	!	!	!LO:LB:g=original	!
=64	=64	=64	=64	=64	=64	=64	=64	=64
4BB/	.	4b\	8.b\L	.	4B\	-quae	4b\	-quae
.	.	.	16ff#\Jk	.	.	.	.	.
8E\L	.	4cc#\	[2gg\	.	4r	.	4r	.
8D\	.	.	.	.	.	.	.	.
8C#\	.	[4ee\	.	.	4r	.	4r	.
8BB\J	.	.	.	.	.	.	.	.
=65	=65	=65	=65	=65	=65	=65	=65	=65
!	!	!	!	!	!LO:N:vis=00	!	!LO:N:vis=00	!
4AA/	.	4ee\]	8.gg\L]	.	0.r	.	0.r	.
.	.	.	16ee\Jk	.	.	.	.	.
8D\L	.	4a\	[2ff#\	.	.	.	.	.
8C#\	.	.	.	.	.	.	.	.
8BB\	.	[4dd\	.	.	.	.	.	.
8AA\J	.	.	.	.	.	.	.	.
=66	=66	=66	=66	=66	=66	=66	=66	=66
4GG/	.	4dd\]	8.ff#\L]	.	.	.	.	.
.	.	.	16dd\Jk	.	.	.	.	.
8C#/L	.	4gn/	[2ee\	.	.	.	.	.
8BB/	.	.	.	.	.	.	.	.
8AA#X/	.	[4cc#\	.	.	.	.	.	.
8GG/J	.	.	.	.	.	.	.	.
=67	=67	=67	=67	=67	=67	=67	=67	=67
!	!	!LO:TX:a:t=P:problem:skreślony takt	!	!	!	!	!	!
4FF#/	.	4.cc#\]	4.ee\]	.	.	.	.	.
4F#\	.	.	.	.	.	.	.	.
.	.	8a#X\	8cc#\	.	.	.	.	.
4BB/	.	4b\	4dd\	.	.	.	.	.
=68	=68	=68	=68	=68	=68	=68	=68	=68
4E\	.	4gn/	8cc#\L	.	.	.	.	.
.	.	.	8b\J	.	.	.	.	.
4F#\	.	2a#X/	2cc#t\	.	.	.	.	.
4FF#/	.	.	.	.	.	.	.	.
!	!	!LO:LB:g=original	!LO:LB:g=original	!	!	!	!	!
=69	=69	=69	=69	=69	=69	=69	=69	=69
!	!LO:DY:a	!	!	!LO:DY:a	!LO:TX:a:t=Solo	!	!	!
4BB/	p	4b\	4b\	p	4r	.	4r	.
!	!	!	!	!	!	!	!LO:TX:a:t=Solo	!
4r	.	4b\	4dd\	.	4B\	Qui	4dd\	Qui
!	!	!	!	!	!	!	!LO:SIC:l:s=an-:v	!
4BB/	.	4b\	4dd\	.	4B\	a-	4dd\	a-
=70	=70	=70	=70	=70	=70	=70	=70	=70
*2\right	*	*	*	*	*	*	*	*
2F#\	.	4a#X\	4cc#\	.	4A#X\	-nun-	4cc#\	-nun-
.	.	8a#\L	8cc#\L	.	8A#\	-ti-	8cc#\	-ti-
.	.	8b\	8dd\	.	8B\	-at	8dd\	-at
4F#\	.	8cc#\	8ee\	.	8c#\	Ver-	8ee\	Ver-
.	.	8a#\J	8cc#\J	.	8A#X\	-bum	8cc#\	-bum
=71	=71	=71	=71	=71	=71	=71	=71	=71
4B\	.	4b\	4dd\	.	4B\	ſu-	4dd\	ſu-
4BB/	.	4b\	4dd\	.	4B\	-um	4dd\	-um
4BB/	.	4dd\	4ff#\	.	(4d\	Ver-	(4ff#\	Ver-
=72	=72	=72	=72	=72	=72	=72	=72	=72
4BB/	.	8ee\L	8gg\L	.	8e\)	.	8gg\)	.
.	.	8dd\J	8ff#\J	.	8d\	-bum	8ff#\	-bum
4AA#X/	.	4cc#\	4ee\	.	4c#\	ſu-	4ee\	ſu-
4BB/	.	4b\	4dd\	.	4B\	-um	4dd\	-um
=73	=73	=73	=73	=73	=73	=73	=73	=73
4F#\	.	4b\	4ddT\	.	4B\	Ja-	4dd\	Ja-
4F#\	.	4a#X\	4cc#\	.	4A#X\	-cob	4cc#\	-cob
4E\	.	4r	4r	.	4r	.	4r	.
=74	=74	=74	=74	=74	=74	=74	=74	=74
!	!	!LO:N:vis=00	!LO:N:vis=00	!	!	!	!	!
4D\	.	0.r	0.r	.	4F#/	juſ-	4a\	juſ-
4r	.	.	.	.	4G/	-ti-	4b\	-ti-
4D\	.	.	.	.	4An/	-ti-	4ccn\	-ti-
!LO:LB:g=original	!	!	!	!	!	!	!	!
=75	=75	=75	=75	=75	=75	=75	=75	=75
!	!	!	!	!	!	!	!LO:SIC:s=8qccn:v	!
.	.	.	.	.	8qqA/	.	8qqcc#/	.
4G\	.	.	.	.	2G/	-as	2b\	-aſ
8B\L	.	.	.	.	.	.	.	.
8A\	.	.	.	.	.	.	.	.
8G\	.	.	.	.	4r	.	4r	.
8F#\J	.	.	.	.	.	.	.	.
=76	=76	=76	=76	=76	=76	=76	=76	=76
4E\	.	.	.	.	8G#X\	et	8b\	et
.	.	.	.	.	8G#\	ju-	8b\	ju-
4r	.	.	.	.	4A\	-di-	4cc#X\	-di-
4E\	.	.	.	.	4B\	-ci-	4dd\	-ci-
=77	=77	=77	=77	=77	=77	=77	=77	=77
.	.	.	.	.	8qqB/	.	8qqdd/	.
4A\	.	.	.	.	2.A\	-a	2.cc#\	-a
8E\L	.	.	.	.	.	.	.	.
8D\	.	.	.	.	.	.	.	.
8C#\	.	.	.	.	.	.	.	.
8BB\J	.	.	.	.	.	.	.	.
!	!	!	!	!	!LO:LB:g=original	!	!	!
=78	=78	=78	=78	=78	=78	=78	=78	=78
!	!	!LO:N:vis=0	!LO:N:vis=0	!	!	!	!	!
4AA/	.	1.r	1.r	.	(4c#\	ſu-	4ee\	ſu-
4C#/	.	.	.	.	4e\)	.	4gg\	.
4D/	.	.	.	.	4d\	-a	4ff#\	-a
!	!	!	!	!	!	!	!LO:LB:g=original	!
=79	=79	=79	=79	=79	=79	=79	=79	=79
4G\	.	.	.	.	4G/	Is-	4ee\	Is-
.	.	.	.	.	8qqF#/	.	.	.
4A\	.	.	.	.	4.E/	.	4.cc#\	.
4AA/	.	.	.	.	.	.	.	.
.	.	.	.	.	8E/	-ra-	8cc#\	-ra-
=80	=80	=80	=80	=80	=80	=80	=80	=80
4D\	.	2.r	4r	.	4F#/	-el	4dd\	-el
4r	.	.	4dd\	.	4r	.	4dd\	non
4r	.	.	4dd\	.	4r	.	8dd\	fe-
.	.	.	.	.	.	.	8dd\	-cit
=81	=81	=81	=81	=81	=81	=81	=81	=81
!	!LO:DY:a	!	!	!	!	!	!	!
4r	f	4r	4dd\	.	4r	.	(4dd\	ta-
4D\	.	4a/	4ccn\	.	4A\	ta-	4ccn\)	.
4D\	.	4a/	4cc\	.	4A\	-li-	4cc\	-li-
=82	=82	=82	=82	=82	=82	=82	=82	=82
!	!	!	!	!	!LO:SIC:l:s=-ter:v	!	!	!
4G\	.	4d/	4b\	.	4D/	-tere	4b\	-ter
4r	.	4r	4ee\	.	4r	.	4ee\	om-
4r	.	4r	4ee\	.	4r	.	4ee\	-ni
=83	=83	=83	=83	=83	=83	=83	=83	=83
4r	.	4r	4ee\	.	4r	.	8ee\	na-
.	.	.	.	.	.	.	8ee\	-ti-
4E\	.	4b\	2dd\	.	8B\	na-	2dd\	-o-
.	.	.	.	.	8B\	-ti-	.	.
4E\	.	4b\	.	.	4B\	-o-	.	.
=84	=84	=84	=84	=84	=84	=84	=84	=84
4A\	.	8e/L	8cc#X\L	.	4E/	-ni	4cc#\	-ni
.	.	8e/	8a\	.	.	.	.	.
4A\	.	8a/	8cc#\	.	8c#\	et	8ee\	et
.	.	8cc#/	8ee\	.	8c#\	ju-	8ee\	ju-
4c#\	.	8ee/	8aa\	.	8c#\	-di-	8ee\	-di-
.	.	8cc#/J	8ee\J	.	16c#\	-ci-	16ee\	-ci-
.	.	.	.	.	16c#\	-a	16ee\	-a
=85	=85	=85	=85	=85	=85	=85	=85	=85
4d\	.	4a/	8ff#\L	.	8A\	ſu-	8ff#\	ſu-
.	.	.	8dd\	.	8A\	-a	8ff#\	-a
4A\	.	8cc#\L	8ee\	.	8c#\	non	8ee\	non
.	.	8e\	8a\	.	8c#\	ma-	8ee\	ma-
4c#\	.	8a\	8cc#\	.	8c#\	-ni-	8ee\	-ni-
.	.	8cc#\J	8ee\J	.	8c#\	-feſ-	8ee\	-feſ-
=86	=86	=86	=86	=86	=86	=86	=86	=86
4d\	.	4dd\	12ff#\L	.	8d\	-ta-	8ff#\	-ta-
.	.	.	12ee\	.	.	.	.	.
.	.	.	.	.	8d\	-vit	8ff#\	-vit
.	.	.	12dd\J	.	.	.	.	.
4A\	.	2cc#t\	2eeT\	.	2c#\	e-	2ee\	e-
4AA/	.	.	.	.	.	.	.	.
=87	=87	=87	=87	=87	=87	=87	=87	=87
!	!	!LO:TX:a:t=P:problem:mixed beam	!	!	!	!	!LO:SIC:l:s=-is:v	!
4D\	.	8dd\L	8dd\L	.	4d\	-iſ	4dd\	-jus
.	.	8e\	8a\	.	.	.	.	.
4A\	.	8a\	8cc#\	.	4r	.	4r	.
.	.	8cc#\	8ee\	.	.	.	.	.
4c#\	.	8ee\	8aa\	.	4r	.	4r	.
.	.	8cc#\J	8ee\J	.	.	.	.	.
!	!	!	!	!	!	!	!LO:LB:g=original	!
=88	=88	=88	=88	=88	=88	=88	=88	=88
4d\	.	4dd\	12ff#\L	.	2.r	.	2.r	.
.	.	.	12ee\	.	.	.	.	.
.	.	.	12dd\J	.	.	.	.	.
4A\	.	2cc#t\	2eeT\	.	.	.	.	.
4AA/	.	.	.	.	.	.	.	.
!	!	!	!	!	!LO:LB:g=original	!	!	!
=89	=89	=89	=89	=89	=89	=89	=89	=89
!	!LO:DY:a	!	!	!	!LO:TX:a:t=Solo	!	!LO:TX:a:t=Solo	!
4D\	p	4dd\	4dd\	.	4F#/	Glo-	4dd\	Glo-
4d\	.	4r	4r	.	4F#/	-ri-	4dd\	-ri-
4A\	.	4r	4r	.	4G/	-a	4ee\	-a
!	!	!LO:PB:g=original	!	!	!	!	!	!
=90	=90	=90	=90	=90	=90	=90	=90	=90
!	!	!LO:N:vis=0	!LO:N:vis=0	!	!	!	!	!
4D\	.	1.r	1.r	.	4A/	Pa-	4ff#\	Pa-
4F#\	.	.	.	.	4F#/	-tri	4dd\	-tri
4D\	.	.	.	.	4A/	et	4ff#\	et
=91	=91	=91	=91	=91	=91	=91	=91	=91
4G\	.	.	.	.	4G/	fi-	(4ee\	fi-
4A\	.	.	.	.	4F#/	.	4dd\)	.
4AA/	.	.	.	.	4E/	-li-	4cc#\	-li-
!	!	!	!LO:LB:g=original	!	!	!	!	!
=92	=92	=92	=92	=92	=92	=92	=92	=92
!	!LO:DY:a	!	!	!	!	!	!	!
4D\	f	4r	4r	.	4F#/	-o	4dd\	-o
!	!	!	!	!	!LO:TX:a:t=Tutti	!	!	!
4D\	.	4ff#\	4ddd\	.	4A\	et	4ff#\	et
4D\	.	4ff#\	4ddd\	.	4A\	ſpi-	4ff#\	ſpi-
=93	=93	=93	=93	=93	=93	=93	=93	=93
4B\	.	12ee\L	12ccc#\L	.	4c#\	-ri-	4ee\	-ri-
.	.	12dd\	12bb\	.	.	.	.	.
.	.	12cc#\J	12aa\J	.	.	.	.	.
4c#\	.	4cc#\	4a/	.	4c#\	-tu-	4ee\	-tu-
4d\	.	4ff#\	4ddd\	.	4A\	-i	4ff#\	-i
=94	=94	=94	=94	=94	=94	=94	=94	=94
4A\	.	12ee\L	12ccc#\L	.	4c#\	ſan-	4ee\	ſan-
.	.	12dd\	12bb\	.	.	.	.	.
.	.	12cc#\J	12aa\J	.	.	.	.	.
4AA/	.	4a/	4a/	.	4c#\	-cto	4ee\	-cto
4r	.	4A/	4A/	.	4r	.	4r	.
=95	=95	=95	=95	=95	=95	=95	=95	=95
4D\	.	4f#/	4dd\	.	8F#/	ſi-	8dd\	ſi-
.	.	.	.	.	8F#/	-cut	8dd\	-cut
4F#\	.	4a/	8dd\L	.	4A/	e-	4dd\	e-
.	.	.	8ee\	.	.	.	.	.
4E\	.	4g/	8ff#\	.	4G/	-rat	4dd\	-rat
.	.	.	8gg\J	.	.	.	.	.
!LO:LB:g=original	!	!	!	!	!	!	!	!
=96	=96	=96	=96	=96	=96	=96	=96	=96
4D\	.	4f#/	16aa\LL	.	4F#/	in	4dd\	in
.	.	.	16gg\	.	.	.	.	.
.	.	.	16ff#\	.	.	.	.	.
.	.	.	16ee\JJ	.	.	.	.	.
.	.	.	8qqee/	.	.	.	.	.
4F#\	.	4a/	2dd\	.	(4A/	prin-	2dd\	prin-
4E\	.	4g/	.	.	4G/)	.	.	.
=97	=97	=97	=97	=97	=97	=97	=97	=97
4D\	.	4f#/	16aa\LL	.	(4F#/	-ci-	2dd\	-ci-
.	.	.	16gg\	.	.	.	.	.
.	.	.	16ff#\	.	.	.	.	.
.	.	.	16ee\JJ	.	.	.	.	.
4F#\	.	8.a\L	8.dd\L	.	4A/)	.	.	.
.	.	16ccn\K	16aa\K	.	.	.	.	.
!	!	!	!LO:N:vis=8	!	!	!	!	!
4D\	.	8.a\	8.ccn\	.	4A/	-pi-	4ccn\	-pi-
.	.	16cc\Jk	16aa\Jk	.	.	.	.	.
=98	=98	=98	=98	=98	=98	=98	=98	=98
!	!	!	!	!	!	!	!LO:SIC:s=4ccn:v	!
4G\	.	(4a/	(4ccn\	.	(4A/	-o	4cc#\	-o
4GG/	.	8.g/L)	8.b\L)	.	4G/)	.	4b\	.
.	.	16g/Jk	16g\Jk	.	.	.	.	.
4r	.	4gg\	4gg\	.	4r	.	4r	.
!	!	!	!	!	!	!	!LO:PB:g=original	!
=99	=99	=99	=99	=99	=99	=99	=99	=99
4E\	.	4g#X/	4ee\	.	4G#X\	et	4ee\	et
4G#X\	.	4b/	8ee\L	.	4B\	nunc	4ee\	nunc
.	.	.	8ff#\	.	.	.	.	.
4F#\	.	4a/	8gg#X\	.	4A\	et	4ee\	et
.	.	.	8aa\J	.	.	.	.	.
=100	=100	=100	=100	=100	=100	=100	=100	=100
4E\	.	4g#X/	16bb\LL	.	4G#X\	ſem-	4ee\	ſem-
.	.	.	16aa\	.	.	.	.	.
.	.	.	16gg#X\	.	.	.	.	.
.	.	.	16ff#\JJ	.	.	.	.	.
.	.	.	8qqff#/	.	.	.	.	.
4G#X\	.	4b/	2ee\	.	(4B\	-per	2ee\	-per
4F#\	.	4a/	.	.	4A\)	.	.	.
!	!	!	!	!	!LO:LB:g=original	!	!	!
=101	=101	=101	=101	=101	=101	=101	=101	=101
4E\	.	4g#X/	16bb\LL	.	(4G#X\	et	2ee\	et
.	.	.	16aa\	.	.	.	.	.
.	.	.	16gg#X\	.	.	.	.	.
.	.	.	16ff#\JJ	.	.	.	.	.
4G#X\	.	8.b\L	8.ee\L	.	4B\)	.	.	.
.	.	16dd\K	16bb\K	.	.	.	.	.
4E\	.	8.b\	8.dd\	.	4B\	in	4dd\	in
.	.	16dd\Jk	16bb\Jk	.	.	.	.	.
=102	=102	=102	=102	=102	=102	=102	=102	=102
4A\	.	(4b\	(4dd\	.	8B\	ſae-	8dd\	ſae-
.	.	.	.	.	8B\	-cu-	8dd\	-cu-
4AA/	.	8.a\L)	8.cc#\L)	.	4A\	-la	4cc#\	-la
.	.	16a\Jk	16a\Jk	.	.	.	.	.
4r	.	4aa\	4aa\	.	4r	.	4r	.
=103	=103	=103	=103	=103	=103	=103	=103	=103
!	!	!	!	!	!	!	!LO:SIC:l:s=sae-:v	!
4AA/	.	4ee\	4ggn\	.	8c#\	ſe-	8ee\	ſe-
.	.	.	.	.	8c#\	-cu-	8ee\	-cu-
4C#/	.	4.ee\	4.gg\	.	4c#\	-lo-	4ee\	-lo-
4AA/	.	.	.	.	4c#\	-rum	4ee\	-rum
.	.	(16dd\LL	16ff#\LL	.	.	.	.	.
.	.	16cc#\JJ)	16ee\JJ	.	.	.	.	.
=104	=104	=104	=104	=104	=104	=104	=104	=104
4D\	.	4dd\	12ff#\L	.	4d\	a-	4ff#\	a-
.	.	.	12ee\	.	.	.	.	.
.	.	.	12dd\J	.	.	.	.	.
4A\	.	2cc#t\	2eeT\	.	2c#\	.	2ee\	.
4AA/	.	.	.	.	.	.	.	.
!	!	!	!LO:LB:g=original	!	!	!	!	!
=105	=105	=105	=105	=105	=105	=105	=105	=105
4D\	.	4dd\	4dd\	.	4d\	-men	4ff#\	-men
4A\	.	4ff#\	4ddd\	.	4r	.	4r	.
4AA/	.	4ee\	4ccc#\	.	4c#\	a-	4ee\	a-
=106	=106	=106	=106	=106	=106	=106	=106	=106
4D\	.	4ff#\	4ddd\	.	4d\	-men	4ff#\	-men
4r	.	4r	4r	.	4r	.	4r	.
4r	.	4r	4r	.	4r	.	4r	.
==	==	==;;	==	==	==	==	==	==
*-	*-	*-	*-	*-	*-	*-	*-	*-
!!!system-decoration: [g1][g2]s5
!!!RDF**kern: > = above
!!!RDF**kern: < = below
!!!RDF**dynam: f = "for"
!!!RDF**dynam: p = "pia"
!!!AIN: 1 empty 1 tenor 2 violn 1 vox
!!!ENC: Marta Lawrence
!!!END: 2020-09-10
!!!ENC: Andrzej Kubiczek
!!!END: 2020-05-15
